X: 2
T: Chancellor, The
Z: Dargai
S: https://thesession.org/tunes/2687#setting26405
R: hornpipe
M: 4/4
L: 1/8
K: Gmaj
GE|D3E ~G2EG|AdcA BG~G2|ABcd eBdB|ABAG EAGE|
DB,DE ~G2(3(EFG)|ABce gfgd|~B2GB ADFA|GBAF G2:|
ef|gfed ~e2de|gedB d3B|cBcd gedB|ABAG EAGE|
DB,DE ~G2EG|ABce gfgd|~B2GB ADFA|GBAF G2:||
